blueprints/wikibase-suite/wikibase-suite.svg

<?xml version="1.0" encoding="UTF-8"?><svg id="Ebene_1" xmlns="http://www.w3.org/2000/svg" xmlns:xlink="http://www.w3.org/1999/xlink" viewBox="0 0 1920 1281.42"><defs><style>.cls-1{fill:url(#Neues_Verlaufsfeld_17-2);}.cls-2{fill:#0063bf;}.cls-3{fill:#900;}.cls-4{fill:url(#Neues_Verlaufsfeld_16);}.cls-5{fill:url(#Neues_Verlaufsfeld_17);}.cls-6{fill:url(#Neues_Verlaufsfeld_15);}.cls-7{fill:url(#Unbenannter_Verlauf_3);}</style><linearGradient id="Neues_Verlaufsfeld_17" x1="501.2" y1="631.39" x2="751.14" y2="631.39" gradientUnits="userSpaceOnUse"><stop offset="0" stop-color="#59a4d9"/><stop offset=".08" stop-color="#4d9bd5"/><stop offset=".34" stop-color="#2b83cb"/><stop offset=".58" stop-color="#1371c4"/><stop offset=".81" stop-color="#0566c0"/><stop offset="1" stop-color="#0063bf"/></linearGradient><linearGradient id="Unbenannter_Verlauf_3" x1="401.06" y1="631.39" x2="602.66" y2="631.39" gradientUnits="userSpaceOnUse"><stop offset="0" stop-color="#396"/><stop offset=".15" stop-color="#396"/><stop offset="1" stop-color="#396"/></linearGradient><linearGradient id="Neues_Verlaufsfeld_17-2" x1="501.2" y1="630.39" x2="751.14" y2="630.39" xlink:href="#Neues_Verlaufsfeld_17"/><linearGradient id="Neues_Verlaufsfeld_16" x1="194.97" y1="630.39" x2="671.95" y2="630.39" gradientUnits="userSpaceOnUse"><stop offset="0" stop-color="#5cb075"/><stop offset="0" stop-color="#5baf74"/><stop offset=".36" stop-color="#45a36c"/><stop offset=".7" stop-color="#379b67"/><stop offset="1" stop-color="#396"/></linearGradient><linearGradient id="Neues_Verlaufsfeld_15" x1="338.98" y1="630.39" x2="463.58" y2="630.39" gradientUnits="userSpaceOnUse"><stop offset="0" stop-color="#cd2e29"/><stop offset=".19" stop-color="#ba1d1a"/><stop offset=".44" stop-color="#a70c0b"/><stop offset=".71" stop-color="#9c0302"/><stop offset="1" stop-color="#900"/></linearGradient></defs><g><path class="cls-2" d="M958.3,530.51l-28.83,88.13h-21.91l-19.39-59.68-20.02,59.68h-21.78l-28.96-88.13h21.15l19.89,61.94,20.77-61.94h18.88l20.14,62.45,20.52-62.45h19.51Z"/><path class="cls-2" d="M969.63,530.51h20.4v88.13h-20.4v-88.13Z"/><path class="cls-2" d="M1043.03,584.02l-11.83,12.34v22.28h-20.27v-88.13h20.27v41.17l39.03-41.17h22.66l-36.51,39.28,38.65,48.85h-23.8l-28.2-34.62Z"/><path class="cls-2" d="M1104.09,530.51h20.4v88.13h-20.4v-88.13Z"/><path class="cls-2" d="M1226.21,594.59c0,15.23-12.09,24.05-35.25,24.05h-45.58v-88.13h43.06c22.03,0,33.36,9.19,33.36,22.91,0,8.81-4.53,15.61-11.71,19.39,9.82,3.15,16.12,10.7,16.12,21.78Zm-60.56-48.72v20.77h20.27c9.95,0,15.36-3.53,15.36-10.45s-5.41-10.32-15.36-10.32h-20.27Zm40.04,46.58c0-7.43-5.67-10.95-16.24-10.95h-23.8v21.78h23.8c10.58,0,16.24-3.27,16.24-10.83Z"/><path class="cls-2" d="M1299.74,599.76h-40.92l-7.81,18.88h-20.9l39.28-88.13h20.14l39.41,88.13h-21.4l-7.81-18.88Zm-6.42-15.49l-13.97-33.74-13.98,33.74h27.95Z"/><path class="cls-2" d="M1331.22,609.95l6.92-15.36c7.43,5.41,18.51,9.19,29.08,9.19,12.09,0,17-4.03,17-9.44,0-16.49-51.24-5.16-51.24-37.9,0-14.98,12.09-27.45,37.14-27.45,11.08,0,22.41,2.64,30.59,7.81l-6.29,15.49c-8.18-4.66-16.62-6.92-24.42-6.92-12.09,0-16.74,4.53-16.74,10.07,0,16.24,51.24,5.04,51.24,37.39,0,14.73-12.21,27.32-37.39,27.32-13.97,0-28.08-4.15-35.88-10.2Z"/><path class="cls-2" d="M1486.7,602.27v16.37h-68.24v-88.13h66.6v16.37h-46.33v19.14h40.92v15.86h-40.92v20.4h47.97Z"/></g><g><path class="cls-3" d="M821.9,722.97l6.92-15.36c7.43,5.41,18.51,9.19,29.08,9.19,12.09,0,17-4.03,17-9.44,0-16.49-51.24-5.16-51.24-37.9,0-14.98,12.09-27.45,37.14-27.45,11.08,0,22.41,2.64,30.59,7.81l-6.3,15.49c-8.18-4.66-16.62-6.92-24.42-6.92-12.09,0-16.74,4.53-16.74,10.07,0,16.24,51.24,5.04,51.24,37.39,0,14.73-12.21,27.32-37.39,27.32-13.97,0-28.08-4.15-35.88-10.2Z"/><path class="cls-3" d="M908.39,692.88v-49.35h20.4v48.6c0,16.74,7.3,23.67,19.64,23.67s19.64-6.92,19.64-23.67v-48.6h20.14v49.35c0,25.94-14.86,40.29-39.91,40.29s-39.91-14.35-39.91-40.29Z"/><path class="cls-3" d="M1008.36,643.53h20.4v88.13h-20.4v-88.13Z"/><path class="cls-3" d="M1067.91,660.15h-28.2v-16.62h76.8v16.62h-28.2v71.51h-20.4v-71.51Z"/><path class="cls-3" d="M1195.7,715.29v16.37h-68.24v-88.13h66.6v16.37h-46.33v19.14h40.92v15.86h-40.92v20.4h47.97Z"/></g><path class="cls-5" d="M501.3,632.4v-2.03c-.08,.68-.08,1.35,0,2.03Z"/><path class="cls-7" d="M501.3,632.4v-2.03c-.08,.68-.08,1.35,0,2.03Z"/><g><path class="cls-1" d="M748.51,624.04l-115.99-115.99c-3.5-3.51-9.19-3.51-12.69,0l-67.9,67.9,48.1,48.1c3.5,3.51,3.5,9.19,0,12.69l-48.1,48.1,67.9,67.9c3.51,3.5,9.19,3.5,12.69,0l115.99-115.99c3.5-3.5,3.5-9.19,0-12.69Z"/><path class="cls-4" d="M501.3,631.4c-.08-.68-.08-1.35,0-2.03,.22-1.95,1.04-3.84,2.53-5.33l48.1-48.1-43.72-43.72c-1.9-1.9-4.42-2.73-6.91-2.58-2.11,.13-4.18,.97-5.79,2.58l-63.38,63.38,29.08,29.08c3.15,3.15,3.15,8.27,0,11.42l-29.08,29.08,63.38,63.38c1.61,1.61,3.68,2.44,5.79,2.58,2.48,.15,5.01-.68,6.91-2.58l43.72-43.72-48.1-48.1c-1.49-1.49-2.31-3.39-2.53-5.33Z"/><path class="cls-6" d="M403.69,624.04l28.45-28.45-25.15-25.15c-3.15-3.15-8.27-3.15-11.42,0l-54.23,54.23c-3.15,3.15-3.15,8.27,0,11.42l54.23,54.23c3.15,3.15,8.27,3.15,11.42,0l25.15-25.15-28.45-28.45c-3.5-3.5-3.5-9.19,0-12.69Z"/></g></svg>

<?xml version="1.0" encoding="UTF-8" standalone="no"?>
<!DOCTYPE svg PUBLIC "-//W3C//DTD SVG 1.1//EN" "http://www.w3.org/Graphics/SVG/1.1/DTD/svg11.dtd">
<svg width="100%" height="100%" viewBox="0 0 1156 262" version="1.1" xmlns="http://www.w3.org/2000/svg" xmlns:xlink="http://www.w3.org/1999/xlink" xml:space="preserve" xmlns:serif="http://www.serif.com/" style="fill-rule:evenodd;clip-rule:evenodd;stroke-linejoin:round;stroke-miterlimit:2;">
    <g transform="matrix(1,0,0,1,-336,-499)">
        <path d="M958.3,530.51L929.47,618.64L907.56,618.64L888.17,558.96L868.15,618.64L846.37,618.64L817.41,530.51L838.56,530.51L858.45,592.45L879.22,530.51L898.1,530.51L918.24,592.96L938.76,530.51L958.3,530.51Z" style="fill:rgb(0,99,191);fill-rule:nonzero;"/>
        <rect x="969.63" y="530.51" width="20.4" height="88.13" style="fill:rgb(0,99,191);fill-rule:nonzero;"/>
        <path d="M1043.03,584.02L1031.2,596.36L1031.2,618.64L1010.93,618.64L1010.93,530.51L1031.2,530.51L1031.2,571.68L1070.23,530.51L1092.89,530.51L1056.38,569.79L1095.03,618.64L1071.23,618.64L1043.03,584.02Z" style="fill:rgb(0,99,191);fill-rule:nonzero;"/>
        <rect x="1104.09" y="530.51" width="20.4" height="88.13" style="fill:rgb(0,99,191);fill-rule:nonzero;"/>
        <path d="M1226.21,594.59C1226.21,609.82 1214.12,618.64 1190.96,618.64L1145.38,618.64L1145.38,530.51L1188.44,530.51C1210.47,530.51 1221.8,539.7 1221.8,553.42C1221.8,562.23 1217.27,569.03 1210.09,572.81C1219.91,575.96 1226.21,583.51 1226.21,594.59ZM1165.65,545.87L1165.65,566.64L1185.92,566.64C1195.87,566.64 1201.28,563.11 1201.28,556.19C1201.28,549.27 1195.87,545.87 1185.92,545.87L1165.65,545.87ZM1205.69,592.45C1205.69,585.02 1200.02,581.5 1189.45,581.5L1165.65,581.5L1165.65,603.28L1189.45,603.28C1200.03,603.28 1205.69,600.01 1205.69,592.45Z" style="fill:rgb(0,99,191);fill-rule:nonzero;"/>
        <path d="M1299.74,599.76L1258.82,599.76L1251.01,618.64L1230.11,618.64L1269.39,530.51L1289.53,530.51L1328.94,618.64L1307.54,618.64L1299.73,599.76L1299.74,599.76ZM1293.32,584.27L1279.35,550.53L1265.37,584.27L1293.32,584.27Z" style="fill:rgb(0,99,191);fill-rule:nonzero;"/>
        <path d="M1331.22,609.95L1338.14,594.59C1345.57,600 1356.65,603.78 1367.22,603.78C1379.31,603.78 1384.22,599.75 1384.22,594.34C1384.22,577.85 1332.98,589.18 1332.98,556.44C1332.98,541.46 1345.07,528.99 1370.12,528.99C1381.2,528.99 1392.53,531.63 1400.71,536.8L1394.42,552.29C1386.24,547.63 1377.8,545.37 1370,545.37C1357.91,545.37 1353.26,549.9 1353.26,555.44C1353.26,571.68 1404.5,560.48 1404.5,592.83C1404.5,607.56 1392.29,620.15 1367.11,620.15C1353.14,620.15 1339.03,616 1331.23,609.95L1331.22,609.95Z" style="fill:rgb(0,99,191);fill-rule:nonzero;"/>
        <path d="M1486.7,602.27L1486.7,618.64L1418.46,618.64L1418.46,530.51L1485.06,530.51L1485.06,546.88L1438.73,546.88L1438.73,566.02L1479.65,566.02L1479.65,581.88L1438.73,581.88L1438.73,602.28L1486.7,602.28L1486.7,602.27Z" style="fill:rgb(0,99,191);fill-rule:nonzero;"/>
    </g>
    <g transform="matrix(1,0,0,1,-336,-499)">
        <path d="M821.9,722.97L828.82,707.61C836.25,713.02 847.33,716.8 857.9,716.8C869.99,716.8 874.9,712.77 874.9,707.36C874.9,690.87 823.66,702.2 823.66,669.46C823.66,654.48 835.75,642.01 860.8,642.01C871.88,642.01 883.21,644.65 891.39,649.82L885.09,665.31C876.91,660.65 868.47,658.39 860.67,658.39C848.58,658.39 843.93,662.92 843.93,668.46C843.93,684.7 895.17,673.5 895.17,705.85C895.17,720.58 882.96,733.17 857.78,733.17C843.81,733.17 829.7,729.02 821.9,722.97Z" style="fill:rgb(153,0,0);fill-rule:nonzero;"/>
        <path d="M908.39,692.88L908.39,643.53L928.79,643.53L928.79,692.13C928.79,708.87 936.09,715.8 948.43,715.8C960.77,715.8 968.07,708.88 968.07,692.13L968.07,643.53L988.21,643.53L988.21,692.88C988.21,718.82 973.35,733.17 948.3,733.17C923.25,733.17 908.39,718.82 908.39,692.88Z" style="fill:rgb(153,0,0);fill-rule:nonzero;"/>
        <rect x="1008.36" y="643.53" width="20.4" height="88.13" style="fill:rgb(153,0,0);fill-rule:nonzero;"/>
        <path d="M1067.91,660.15L1039.71,660.15L1039.71,643.53L1116.51,643.53L1116.51,660.15L1088.31,660.15L1088.31,731.66L1067.91,731.66L1067.91,660.15Z" style="fill:rgb(153,0,0);fill-rule:nonzero;"/>
        <path d="M1195.7,715.29L1195.7,731.66L1127.46,731.66L1127.46,643.53L1194.06,643.53L1194.06,659.9L1147.73,659.9L1147.73,679.04L1188.65,679.04L1188.65,694.9L1147.73,694.9L1147.73,715.3L1195.7,715.3L1195.7,715.29Z" style="fill:rgb(153,0,0);fill-rule:nonzero;"/>
    </g>
    <g transform="matrix(1,0,0,1,-336,-499)">
        <path d="M501.3,632.4L501.3,630.37C501.22,631.05 501.22,631.72 501.3,632.4Z" style="fill:url(#_Linear1);fill-rule:nonzero;"/>
    </g>
    <g transform="matrix(1,0,0,1,-336,-499)">
        <path d="M501.3,632.4L501.3,630.37C501.22,631.05 501.22,631.72 501.3,632.4Z" style="fill:url(#_Linear2);fill-rule:nonzero;"/>
    </g>
    <g transform="matrix(1,0,0,1,-336,-499)">
        <path d="M748.51,624.04L632.52,508.05C629.02,504.54 623.33,504.54 619.83,508.05L551.93,575.95L600.03,624.05C603.53,627.56 603.53,633.24 600.03,636.74L551.93,684.84L619.83,752.74C623.34,756.24 629.02,756.24 632.52,752.74L748.51,636.75C752.01,633.25 752.01,627.56 748.51,624.06L748.51,624.04Z" style="fill:url(#_Linear3);fill-rule:nonzero;"/>
        <path d="M501.3,631.4C501.22,630.72 501.22,630.05 501.3,629.37C501.52,627.42 502.34,625.53 503.83,624.04L551.93,575.94L508.21,532.22C506.31,530.32 503.79,529.49 501.3,529.64C499.19,529.77 497.12,530.61 495.51,532.22L432.13,595.6L461.21,624.68C464.36,627.83 464.36,632.95 461.21,636.1L432.13,665.18L495.51,728.56C497.12,730.17 499.19,731 501.3,731.14C503.78,731.29 506.31,730.46 508.21,728.56L551.93,684.84L503.83,636.74C502.34,635.25 501.52,633.35 501.3,631.41L501.3,631.4Z" style="fill:url(#_Linear4);fill-rule:nonzero;"/>
        <path d="M403.69,624.04L432.14,595.59L406.99,570.44C403.84,567.29 398.72,567.29 395.57,570.44L341.34,624.67C338.19,627.82 338.19,632.94 341.34,636.09L395.57,690.32C398.72,693.47 403.84,693.47 406.99,690.32L432.14,665.17L403.69,636.72C400.19,633.22 400.19,627.53 403.69,624.03L403.69,624.04Z" style="fill:url(#_Linear5);fill-rule:nonzero;"/>
    </g>
    <defs>
        <linearGradient id="_Linear1" x1="0" y1="0" x2="1" y2="0" gradientUnits="userSpaceOnUse" gradientTransform="matrix(249.94,0,0,249.94,501.2,631.39)"><stop offset="0" style="stop-color:rgb(89,164,217);stop-opacity:1"/><stop offset="0.08" style="stop-color:rgb(77,155,213);stop-opacity:1"/><stop offset="0.34" style="stop-color:rgb(43,131,203);stop-opacity:1"/><stop offset="0.58" style="stop-color:rgb(19,113,196);stop-opacity:1"/><stop offset="0.81" style="stop-color:rgb(5,102,192);stop-opacity:1"/><stop offset="1" style="stop-color:rgb(0,99,191);stop-opacity:1"/></linearGradient>
        <linearGradient id="_Linear2" x1="0" y1="0" x2="1" y2="0" gradientUnits="userSpaceOnUse" gradientTransform="matrix(201.6,0,0,201.6,401.06,631.39)"><stop offset="0" style="stop-color:rgb(51,153,102);stop-opacity:1"/><stop offset="1" style="stop-color:rgb(51,153,102);stop-opacity:1"/></linearGradient>
        <linearGradient id="_Linear3" x1="0" y1="0" x2="1" y2="0" gradientUnits="userSpaceOnUse" gradientTransform="matrix(49789.3,0,0,49789.3,100393,158070)"><stop offset="0" style="stop-color:rgb(89,164,217);stop-opacity:1"/><stop offset="0.08" style="stop-color:rgb(77,155,213);stop-opacity:1"/><stop offset="0.34" style="stop-color:rgb(43,131,203);stop-opacity:1"/><stop offset="0.58" style="stop-color:rgb(19,113,196);stop-opacity:1"/><stop offset="0.81" style="stop-color:rgb(5,102,192);stop-opacity:1"/><stop offset="1" style="stop-color:rgb(0,99,191);stop-opacity:1"/></linearGradient>
        <linearGradient id="_Linear4" x1="0" y1="0" x2="1" y2="0" gradientUnits="userSpaceOnUse" gradientTransform="matrix(476.98,0,0,476.98,194.97,630.39)"><stop offset="0" style="stop-color:rgb(92,176,117);stop-opacity:1"/><stop offset="0" style="stop-color:rgb(91,175,116);stop-opacity:1"/><stop offset="0.36" style="stop-color:rgb(69,163,108);stop-opacity:1"/><stop offset="0.7" style="stop-color:rgb(55,155,103);stop-opacity:1"/><stop offset="1" style="stop-color:rgb(51,153,102);stop-opacity:1"/></linearGradient>
        <linearGradient id="_Linear5" x1="0" y1="0" x2="1" y2="0" gradientUnits="userSpaceOnUse" gradientTransform="matrix(124.6,0,0,124.6,338.98,630.39)"><stop offset="0" style="stop-color:rgb(205,46,41);stop-opacity:1"/><stop offset="0.19" style="stop-color:rgb(186,29,26);stop-opacity:1"/><stop offset="0.44" style="stop-color:rgb(167,12,11);stop-opacity:1"/><stop offset="0.71" style="stop-color:rgb(156,3,2);stop-opacity:1"/><stop offset="1" style="stop-color:rgb(153,0,0);stop-opacity:1"/></linearGradient>
    </defs>
</svg>
